X: 6477
T: Cat In The Fiddle Case, The
R: barndance
M: 4/4
K: Amajor
ed|c2cB ABcA|BcBA F2EF|A2AB cdeA|cBBA B2ed|
cdec ABcA|BcBA F2EF|A2AB cfec|BABc A2:|:ce|
affe fgaf|efed c2de|faec dBcA|BcBA B2ed|
cdec ABcA|FGAF E2EF|A2AB cfec|BABc A2:|

